Full-Stack-Entity/Robotics-Introduction-Project/outputs/sapien/logs/ellipse_trajectory.csv
index,time_s,target_x,target_y,target_z,ee_x,ee_y,ee_z,panda_joint1,panda_joint2,panda_joint3,panda_joint4,panda_joint5,panda_joint6,panda_joint7,panda_finger_joint1,panda_finger_joint2,position_error_m
0,0.000000,0.680000,0.000000,0.529389,0.679994,0.000000,0.529383,0.000000,0.411571,-0.000000,-1.251478,0.000000,1.663051,0.785398,0.035000,0.035000,0.00000873
1,0.033333,0.679914,0.007721,0.530791,0.679914,0.007712,0.530789,0.008797,0.412157,0.003432,-1.246982,-0.001380,1.659137,0.797462,0.035000,0.035000,0.00000930
2,0.066667,0.679655,0.015432,0.532154,0.679656,0.015423,0.532153,0.017608,0.412354,0.006864,-1.243191,-0.002761,1.655536,0.809529,0.035000,0.035000,0.00000924
3,0.100000,0.679224,0.023124,0.533478,0.679225,0.023115,0.533477,0.026412,0.412185,0.010290,-1.240062,-0.004136,1.652227,0.821575,0.035000,0.035000,0.00000919
4,0.133333,0.678622,0.030788,0.534761,0.678623,0.030779,0.534760,0.035195,0.411642,0.013712,-1.237610,-0.005503,1.649216,0.833591,0.035000,0.035000,0.00000913
5,0.166667,0.677849,0.038414,0.536001,0.677850,0.038405,0.535999,0.043947,0.410718,0.017129,-1.235850,-0.006858,1.646513,0.845569,0.035000,0.035000,0.00000911
6,0.200000,0.676907,0.045992,0.537196,0.676908,0.045984,0.537195,0.052656,0.409407,0.020541,-1.234794,-0.008198,1.644122,0.857499,0.035000,0.035000,0.00000904
7,0.233333,0.675795,0.053514,0.538346,0.675797,0.053505,0.538345,0.061310,0.407704,0.023948,-1.234456,-0.009519,1.642052,0.869372,0.035000,0.035000,0.00000899
8,0.266667,0.674516,0.060970,0.539449,0.674518,0.060961,0.539447,0.069897,0.405601,0.027351,-1.234844,-0.010817,1.640306,0.881179,0.035000,0.035000,0.00000898
9,0.300000,0.673072,0.068351,0.540502,0.673074,0.068341,0.540501,0.078404,0.403096,0.030748,-1.235970,-0.012088,1.638890,0.892909,0.035000,0.035000,0.00001005
10,0.333333,0.671463,0.075647,0.541506,0.671466,0.075638,0.541505,0.086822,0.400183,0.034141,-1.237840,-0.013328,1.637808,0.904557,0.035000,0.035000,0.00000996
11,0.366667,0.669693,0.082851,0.542459,0.669696,0.082841,0.542458,0.095137,0.396858,0.037528,-1.240461,-0.014534,1.637061,0.916112,0.035000,0.035000,0.00000991
12,0.400000,0.667763,0.089952,0.543360,0.667766,0.089943,0.543359,0.103339,0.393120,0.040910,-1.243837,-0.015702,1.636653,0.927563,0.035000,0.035000,0.00000972
13,0.433333,0.665675,0.096943,0.544207,0.665678,0.096934,0.544206,0.111416,0.388966,0.044286,-1.247970,-0.016826,1.636583,0.938903,0.035000,0.035000,0.00000954
14,0.466667,0.663433,0.103814,0.544999,0.663436,0.103805,0.544998,0.119357,0.384395,0.047656,-1.252861,-0.017904,1.636851,0.950120,0.035000,0.035000,0.00000958
15,0.500000,0.661038,0.110557,0.545737,0.661042,0.110548,0.545736,0.127150,0.379407,0.051019,-1.258508,-0.018931,1.637456,0.961206,0.035000,0.035000,0.00000951
16,0.533333,0.658495,0.117164,0.546417,0.658498,0.117155,0.546417,0.134786,0.374003,0.054373,-1.264908,-0.019902,1.638395,0.972150,0.035000,0.035000,0.00000940
17,0.566667,0.655805,0.123626,0.547041,0.655809,0.123618,0.547041,0.142255,0.368184,0.057718,-1.272055,-0.020813,1.639665,0.982943,0.035000,0.035000,0.00000920
18,0.600000,0.652973,0.129937,0.547607,0.652977,0.129929,0.547606,0.149546,0.361953,0.061052,-1.279943,-0.021661,1.641262,0.993574,0.035000,0.035000,0.00000910
19,0.633333,0.650001,0.136087,0.548114,0.650006,0.136078,0.548113,0.156649,0.355314,0.064373,-1.288560,-0.022440,1.643180,1.004032,0.035000,0.035000,0.00000986
20,0.666667,0.646894,0.142069,0.548562,0.646899,0.142061,0.548561,0.163557,0.348268,0.067680,-1.297899,-0.023146,1.645413,1.014309,0.035000,0.035000,0.00000999
21,0.700000,0.643656,0.147877,0.548950,0.643661,0.147869,0.548949,0.170262,0.340822,0.070970,-1.307947,-0.023775,1.647953,1.024393,0.035000,0.035000,0.00000981
22,0.733333,0.640289,0.153502,0.549277,0.640295,0.153494,0.549277,0.176756,0.332980,0.074240,-1.318689,-0.024324,1.650794,1.034274,0.035000,0.035000,0.00000969
23,0.766667,0.636800,0.158939,0.549544,0.636805,0.158931,0.549544,0.183031,0.324747,0.077487,-1.330112,-0.024787,1.653926,1.043939,0.035000,0.035000,0.00000934
24,0.800000,0.633190,0.164179,0.549750,0.633196,0.164171,0.549750,0.189081,0.316131,0.080707,-1.342197,-0.025161,1.657339,1.053378,0.035000,0.035000,0.00000939
25,0.833333,0.629466,0.169217,0.549895,0.629472,0.169210,0.549894,0.194900,0.307138,0.083898,-1.354930,-0.025442,1.661025,1.062580,0.035000,0.035000,0.00000915
26,0.866667,0.625632,0.174047,0.549978,0.625638,0.174039,0.549978,0.200482,0.297776,0.087054,-1.368288,-0.025625,1.664971,1.071531,0.035000,0.035000,0.00000998
27,0.900000,0.621692,0.178662,0.549999,0.621699,0.178655,0.549999,0.205824,0.288050,0.090171,-1.382257,-0.025709,1.669168,1.080223,0.035000,0.035000,0.00000982
28,0.933333,0.617652,0.183057,0.549959,0.617659,0.183050,0.549960,0.210923,0.277968,0.093245,-1.396816,-0.025688,1.673604,1.088643,0.035000,0.035000,0.00000969
29,0.966667,0.613516,0.187227,0.549858,0.613523,0.187220,0.549858,0.215774,0.267539,0.096269,-1.411943,-0.025560,1.678266,1.096778,0.035000,0.035000,0.00000957
30,1.000000,0.609289,0.191166,0.549695,0.609297,0.191160,0.549695,0.220375,0.256770,0.099237,-1.427618,-0.025323,1.683143,1.104617,0.035000,0.035000,0.00000946
31,1.033333,0.604978,0.194869,0.549470,0.604985,0.194863,0.549471,0.224725,0.245669,0.102145,-1.443819,-0.024973,1.688222,1.112148,0.035000,0.035000,0.00000924
32,1.066667,0.600586,0.198333,0.549185,0.600593,0.198327,0.549186,0.228823,0.234244,0.104983,-1.460525,-0.024509,1.693490,1.119358,0.035000,0.035000,0.00000910
33,1.100000,0.596119,0.201552,0.548839,0.596127,0.201546,0.548840,0.232668,0.222507,0.107746,-1.477710,-0.023929,1.698932,1.126235,0.035000,0.035000,0.00001007
34,1.133333,0.591583,0.204522,0.548434,0.591592,0.204517,0.548434,0.236262,0.210461,0.110427,-1.495359,-0.023232,1.704539,1.132769,0.035000,0.035000,0.00001006
35,1.166667,0.586984,0.207241,0.547968,0.586992,0.207236,0.547969,0.239606,0.198116,0.113017,-1.513444,-0.022417,1.710295,1.138946,0.035000,0.035000,0.00000978
36,1.200000,0.582327,0.209705,0.547443,0.582335,0.209700,0.547444,0.242701,0.185482,0.115508,-1.531945,-0.021483,1.716186,1.144756,0.035000,0.035000,0.00000958
37,1.233333,0.577617,0.211910,0.546860,0.577626,0.211906,0.546861,0.245550,0.172567,0.117891,-1.550837,-0.020432,1.722199,1.150186,0.035000,0.035000,0.00000950
38,1.266667,0.572862,0.213854,0.546219,0.572870,0.213850,0.546221,0.248156,0.159381,0.120158,-1.570098,-0.019264,1.728320,1.155226,0.035000,0.035000,0.00000949
39,1.300000,0.568065,0.215534,0.545521,0.568074,0.215531,0.545522,0.250524,0.145931,0.122298,-1.589705,-0.017981,1.734535,1.159864,0.035000,0.035000,0.00000938
40,1.333333,0.563235,0.216949,0.544767,0.563243,0.216947,0.544769,0.252657,0.132227,0.124303,-1.609635,-0.016586,1.740830,1.164090,0.035000,0.035000,0.00000927
41,1.366667,0.558375,0.218097,0.543958,0.558384,0.218095,0.543960,0.254560,0.118279,0.126161,-1.629864,-0.015083,1.747192,1.167894,0.035000,0.035000,0.00000927
42,1.400000,0.553493,0.218976,0.543095,0.553502,0.218974,0.543097,0.256239,0.104096,0.127864,-1.650370,-0.013475,1.753605,1.171266,0.035000,0.035000,0.00000929
43,1.433333,0.548594,0.219585,0.542179,0.548603,0.219584,0.542180,0.257700,0.089688,0.129400,-1.671128,-0.011768,1.760057,1.174198,0.035000,0.035000,0.00000918
44,1.466667,0.543685,0.219924,0.541210,0.543694,0.219923,0.541212,0.258948,0.075067,0.130759,-1.692115,-0.009969,1.766534,1.176680,0.035000,0.035000,0.00000915
45,1.500000,0.538771,0.219992,0.540191,0.538781,0.219992,0.540193,0.259989,0.060241,0.131930,-1.713308,-0.008085,1.773021,1.178705,0.035000,0.035000,0.00000931
46,1.533333,0.533859,0.219788,0.539123,0.533868,0.219789,0.539125,0.260831,0.045224,0.132903,-1.734683,-0.006124,1.779505,1.180267,0.035000,0.035000,0.00000925
47,1.566667,0.528954,0.219314,0.538006,0.528963,0.219315,0.538008,0.261480,0.030026,0.133665,-1.756217,-0.004095,1.785973,1.181358,0.035000,0.035000,0.00000919
48,1.600000,0.524063,0.218570,0.536842,0.524072,0.218571,0.536845,0.261941,0.014659,0.134207,-1.777884,-0.002011,1.792411,1.181974,0.035000,0.035000,0.00000931
49,1.633333,0.519192,0.217556,0.535633,0.519201,0.217558,0.535636,0.262222,-0.000862,0.134518,-1.799662,0.000119,1.798807,1.182111,0.035000,0.035000,0.00000932
50,1.666667,0.514346,0.216275,0.534381,0.514355,0.216277,0.534383,0.262328,-0.016526,0.134586,-1.821525,0.002280,1.805148,1.181765,0.035000,0.035000,0.00000957
51,1.700000,0.509532,0.214727,0.533085,0.509541,0.214730,0.533088,0.262265,-0.032316,0.134402,-1.843450,0.004458,1.811422,1.180933,0.035000,0.035000,0.00000957
52,1.733333,0.504755,0.212914,0.531749,0.504764,0.212918,0.531752,0.262038,-0.048219,0.133954,-1.865411,0.006639,1.817617,1.179615,0.035000,0.035000,0.00000971
53,1.766667,0.500022,0.210840,0.530374,0.500031,0.210843,0.530377,0.261652,-0.064219,0.133234,-1.887384,0.008805,1.823723,1.177809,0.035000,0.035000,0.00000982
54,1.800000,0.495338,0.208505,0.528962,0.495347,0.208509,0.528964,0.261109,-0.080298,0.132232,-1.909343,0.010941,1.829728,1.175517,0.035000,0.035000,0.00000995
55,1.833333,0.490709,0.205913,0.527513,0.490717,0.205918,0.527516,0.260414,-0.096439,0.130938,-1.931263,0.013027,1.835622,1.172739,0.035000,0.035000,0.00000998
56,1.866667,0.486141,0.203068,0.526031,0.486148,0.203073,0.526034,0.259569,-0.112627,0.129344,-1.953121,0.015044,1.841398,1.169479,0.035000,0.035000,0.00000929
57,1.900000,0.481639,0.199973,0.524517,0.481646,0.199978,0.524520,0.258574,-0.128835,0.127442,-1.974885,0.016974,1.847046,1.165739,0.035000,0.035000,0.00000933
58,1.933333,0.477209,0.196631,0.522973,0.477216,0.196637,0.522975,0.257429,-0.145047,0.125225,-1.996531,0.018795,1.852557,1.161525,0.035000,0.035000,0.00000949
59,1.966667,0.472856,0.193047,0.521400,0.472863,0.193053,0.521403,0.256134,-0.161240,0.122686,-2.018033,0.020487,1.857928,1.156840,0.035000,0.035000,0.00000970
60,2.000000,0.468586,0.189226,0.519801,0.468593,0.189232,0.519804,0.254687,-0.177392,0.119819,-2.039363,0.022029,1.863150,1.151691,0.035000,0.035000,0.00000984
61,2.033333,0.464404,0.185171,0.518178,0.464411,0.185177,0.518180,0.253084,-0.193479,0.116618,-2.060495,0.023401,1.868221,1.146085,0.035000,0.035000,0.00001002
62,2.066667,0.460315,0.180888,0.516532,0.460322,0.180894,0.516534,0.251322,-0.209475,0.113079,-2.081399,0.024582,1.873137,1.140027,0.035000,0.035000,0.00000999
63,2.100000,0.456325,0.176382,0.514865,0.456331,0.176388,0.514868,0.249394,-0.225358,0.109198,-2.102050,0.025551,1.877896,1.133525,0.035000,0.035000,0.00000919
64,2.133333,0.452437,0.171658,0.513181,0.452443,0.171665,0.513184,0.247295,-0.241094,0.104973,-2.122415,0.026287,1.882497,1.126588,0.035000,0.035000,0.00000946
65,2.166667,0.448658,0.166724,0.511480,0.448663,0.166731,0.511483,0.245018,-0.256657,0.100401,-2.142466,0.026774,1.886939,1.119224,0.035000,0.035000,0.00000953
66,2.200000,0.444990,0.161584,0.509765,0.444996,0.161591,0.509768,0.242556,-0.272018,0.095480,-2.162174,0.026991,1.891226,1.111440,0.035000,0.035000,0.00000980
67,2.233333,0.441440,0.156245,0.508038,0.441446,0.156252,0.508041,0.239900,-0.287146,0.090211,-2.181510,0.026923,1.895359,1.103247,0.035000,0.035000,0.00000974
68,2.266667,0.438012,0.150713,0.506301,0.438017,0.150721,0.506304,0.237043,-0.302007,0.084592,-2.200443,0.026554,1.899344,1.094652,0.035000,0.035000,0.00000999
69,2.300000,0.434709,0.144996,0.504557,0.434714,0.145004,0.504559,0.233975,-0.316568,0.078627,-2.218942,0.025871,1.903186,1.085664,0.035000,0.035000,0.00001016
70,2.333333,0.431535,0.139100,0.502807,0.431540,0.139107,0.502809,0.230689,-0.330796,0.072314,-2.236981,0.024860,1.906892,1.076293,0.035000,0.035000,0.00000921
71,2.366667,0.428496,0.133032,0.501053,0.428500,0.133040,0.501055,0.227177,-0.344650,0.065660,-2.254521,0.023514,1.910469,1.066549,0.035000,0.035000,0.00000938
72,2.400000,0.425593,0.126801,0.499298,0.425597,0.126809,0.499301,0.223433,-0.358096,0.058667,-2.271536,0.021824,1.913929,1.056440,0.035000,0.035000,0.00000954
73,2.433333,0.422832,0.120414,0.497544,0.422836,0.120422,0.497546,0.219450,-0.371095,0.051339,-2.287994,0.019786,1.917281,1.045978,0.035000,0.035000,0.00000947
74,2.466667,0.420215,0.113878,0.495793,0.420219,0.113886,0.495795,0.215224,-0.383608,0.043682,-2.303864,0.017398,1.920538,1.035171,0.035000,0.035000,0.00000959
75,2.500000,0.417746,0.107202,0.494047,0.417749,0.107211,0.494049,0.210752,-0.395594,0.035704,-2.319115,0.014660,1.923713,1.024032,0.035000,0.035000,0.00000968
76,2.533333,0.415427,0.100394,0.492308,0.415430,0.100403,0.492311,0.206033,-0.407013,0.027411,-2.333717,0.011576,1.926819,1.012569,0.035000,0.035000,0.00000973
77,2.566667,0.413262,0.093462,0.490579,0.413264,0.093471,0.490581,0.201069,-0.417825,0.018812,-2.347640,0.008153,1.929870,1.000796,0.035000,0.035000,0.00000989
78,2.600000,0.411252,0.086415,0.488862,0.411255,0.086424,0.488864,0.195862,-0.427987,0.009918,-2.360855,0.004402,1.932883,0.988724,0.035000,0.035000,0.00000996
79,2.633333,0.409402,0.079261,0.487158,0.409404,0.079271,0.487160,0.190419,-0.437461,0.000738,-2.373332,0.000335,1.935872,0.976366,0.035000,0.035000,0.00001012
80,2.666667,0.407712,0.072010,0.485470,0.407714,0.072019,0.485472,0.184748,-0.446206,-0.008716,-2.385046,-0.004031,1.938852,0.963734,0.035000,0.035000,0.00000906
81,2.700000,0.406185,0.064670,0.483800,0.406187,0.064679,0.483802,0.178863,-0.454182,-0.018428,-2.395968,-0.008675,1.941840,0.950847,0.035000,0.035000,0.00000921
82,2.733333,0.404824,0.057251,0.482150,0.404825,0.057260,0.482152,0.172779,-0.461354,-0.028385,-2.406073,-0.013573,1.944849,0.937718,0.035000,0.035000,0.00000932
83,2.766667,0.403628,0.049761,0.480522,0.403630,0.049770,0.480524,0.166512,-0.467685,-0.038572,-2.415338,-0.018700,1.947893,0.924363,0.035000,0.035000,0.00000920
84,2.800000,0.402601,0.042210,0.478918,0.402602,0.042219,0.478920,0.160084,-0.473143,-0.048972,-2.423741,-0.024025,1.950985,0.910800,0.035000,0.035000,0.00000939
85,2.833333,0.401743,0.034606,0.477340,0.401744,0.034615,0.477342,0.153519,-0.477699,-0.059567,-2.431262,-0.029515,1.954137,0.897047,0.035000,0.035000,0.00000925
86,2.866667,0.401055,0.026960,0.475789,0.401056,0.026969,0.475791,0.146842,-0.481326,-0.070338,-2.437884,-0.035136,1.957357,0.883124,0.035000,0.035000,0.00000933
87,2.900000,0.400539,0.019281,0.474269,0.400539,0.019290,0.474271,0.140084,-0.484002,-0.081264,-2.443590,-0.040848,1.960654,0.869049,0.035000,0.035000,0.00000934
88,2.933333,0.400194,0.011578,0.472780,0.400195,0.011587,0.472782,0.133273,-0.485710,-0.092326,-2.448367,-0.046613,1.964032,0.854845,0.035000,0.035000,0.00000945
89,2.966667,0.400022,0.003861,0.471325,0.400022,0.003870,0.471327,0.126443,-0.486435,-0.103502,-2.452205,-0.052389,1.967495,0.840531,0.035000,0.035000,0.00000928
90,3.000000,0.400022,-0.003861,0.469905,0.400022,-0.003852,0.469907,0.119626,-0.486169,-0.114769,-2.455095,-0.058132,1.971041,0.826129,0.035000,0.035000,0.00000932
91,3.033333,0.400194,-0.011578,0.468523,0.400194,-0.011569,0.468524,0.112856,-0.484909,-0.126104,-2.457033,-0.063797,1.974668,0.811660,0.035000,0.035000,0.00000933
92,3.066667,0.400539,-0.019281,0.467179,0.400538,-0.019272,0.467180,0.106167,-0.482657,-0.137484,-2.458016,-0.069341,1.978371,0.797145,0.035000,0.035000,0.00000921
93,3.100000,0.401055,-0.026960,0.465875,0.401055,-0.026951,0.465877,0.099593,-0.479419,-0.148885,-2.458046,-0.074718,1.982140,0.782605,0.035000,0.035000,0.00000922
94,3.133333,0.401743,-0.034606,0.464614,0.401742,-0.034597,0.464615,0.093164,-0.475208,-0.160284,-2.457124,-0.079884,1.985964,0.768061,0.035000,0.035000,0.00000924
95,3.166667,0.402601,-0.042210,0.463396,0.402600,-0.042201,0.463397,0.086912,-0.470041,-0.171657,-2.455258,-0.084795,1.989830,0.753533,0.035000,0.035000,0.00000918
96,3.200000,0.403628,-0.049761,0.462223,0.403627,-0.049752,0.462224,0.080865,-0.463939,-0.182979,-2.452456,-0.089409,1.993720,0.739038,0.035000,0.035000,0.00000904
97,3.233333,0.404824,-0.057251,0.461097,0.404822,-0.057242,0.461098,0.075049,-0.456929,-0.194228,-2.448731,-0.093684,1.997616,0.724596,0.035000,0.035000,0.00000904
98,3.266667,0.406185,-0.064670,0.460018,0.406184,-0.064661,0.460020,0.069485,-0.449041,-0.205378,-2.444098,-0.097582,2.001497,0.710225,0.035000,0.035000,0.00000992
99,3.300000,0.407712,-0.072010,0.458989,0.407710,-0.072001,0.458991,0.064193,-0.440306,-0.216410,-2.438572,-0.101068,2.005341,0.695938,0.035000,0.035000,0.00000976
100,3.333333,0.409402,-0.079261,0.458011,0.409400,-0.079252,0.458012,0.059188,-0.430761,-0.227299,-2.432173,-0.104109,2.009125,0.681752,0.035000,0.035000,0.00000977
101,3.366667,0.411252,-0.086415,0.457084,0.411250,-0.086405,0.457085,0.054481,-0.420446,-0.238023,-2.424922,-0.106674,2.012823,0.667680,0.035000,0.035000,0.00000978
102,3.400000,0.413262,-0.093462,0.456210,0.413259,-0.093453,0.456211,0.050081,-0.409400,-0.248561,-2.416843,-0.108738,2.016411,0.653738,0.035000,0.035000,0.00000957
103,3.433333,0.415427,-0.100394,0.455390,0.415424,-0.100385,0.455391,0.045990,-0.397666,-0.258892,-2.407959,-0.110279,2.019864,0.639938,0.035000,0.035000,0.00000953
104,3.466667,0.417746,-0.107202,0.454625,0.417743,-0.107193,0.454626,0.042209,-0.385288,-0.268994,-2.398299,-0.111279,2.023155,0.626293,0.035000,0.035000,0.00000945
105,3.500000,0.420215,-0.113878,0.453916,0.420212,-0.113869,0.453917,0.038733,-0.372307,-0.278848,-2.387888,-0.111724,2.026260,0.612815,0.035000,0.035000,0.00000923
106,3.533333,0.422832,-0.120414,0.453264,0.422829,-0.120405,0.453264,0.035554,-0.358770,-0.288434,-2.376755,-0.111605,2.029154,0.599516,0.035000,0.035000,0.00000923
107,3.566667,0.425593,-0.126801,0.452669,0.425590,-0.126793,0.452670,0.032660,-0.344719,-0.297734,-2.364930,-0.110917,2.031814,0.586411,0.035000,0.035000,0.00000909
108,3.600000,0.428496,-0.133032,0.452132,0.428492,-0.133024,0.452133,0.030039,-0.330198,-0.306729,-2.352443,-0.109661,2.034217,0.573511,0.035000,0.035000,0.00000905
109,3.633333,0.431535,-0.139100,0.451655,0.431531,-0.139091,0.451656,0.027674,-0.315252,-0.315401,-2.339325,-0.107842,2.036341,0.560834,0.035000,0.035000,0.00000985
110,3.666667,0.434709,-0.144996,0.451237,0.434704,-0.144987,0.451237,0.025543,-0.299921,-0.323734,-2.325604,-0.105469,2.038166,0.548389,0.035000,0.035000,0.00000976
111,3.700000,0.438012,-0.150713,0.450879,0.438007,-0.150705,0.450880,0.023629,-0.284247,-0.331712,-2.311313,-0.102555,2.039675,0.536195,0.035000,0.035000,0.00000951
112,3.733333,0.441440,-0.156245,0.450582,0.441435,-0.156236,0.450582,0.021907,-0.268271,-0.339319,-2.296481,-0.099120,2.040851,0.524269,0.035000,0.035000,0.00000947
113,3.766667,0.444990,-0.161584,0.450345,0.444985,-0.161576,0.450346,0.020356,-0.252033,-0.346542,-2.281139,-0.095186,2.041678,0.512629,0.035000,0.035000,0.00000923
114,3.800000,0.448658,-0.166724,0.450170,0.448652,-0.166716,0.450170,0.018954,-0.235573,-0.353367,-2.265318,-0.090780,2.042143,0.501294,0.035000,0.035000,0.00000905
115,3.833333,0.452437,-0.171658,0.450056,0.452432,-0.171651,0.450056,0.017677,-0.218929,-0.359783,-2.249048,-0.085932,2.042235,0.490285,0.035000,0.035000,0.00000894
116,3.866667,0.456325,-0.176382,0.450004,0.456319,-0.176374,0.450004,0.016504,-0.202140,-0.365779,-2.232360,-0.080678,2.041946,0.479625,0.035000,0.035000,0.00000978
117,3.900000,0.460315,-0.180888,0.450013,0.460309,-0.180880,0.450013,0.015415,-0.185238,-0.371349,-2.215279,-0.075051,2.041268,0.469334,0.035000,0.035000,0.00000961
118,3.933333,0.464404,-0.185171,0.450084,0.464398,-0.185164,0.450084,0.014392,-0.168260,-0.376487,-2.197836,-0.069092,2.040197,0.459435,0.035000,0.035000,0.00000953
119,3.966667,0.468586,-0.189226,0.450216,0.468580,-0.189219,0.450216,0.013418,-0.151241,-0.381187,-2.180060,-0.062843,2.038730,0.449952,0.035000,0.035000,0.00000933
120,4.000000,0.472856,-0.193047,0.450410,0.472849,-0.193041,0.450410,0.012481,-0.134214,-0.385449,-2.161977,-0.056346,2.036867,0.440910,0.035000,0.035000,0.00000905
121,4.033333,0.477209,-0.196631,0.450665,0.477202,-0.196625,0.450664,0.011570,-0.117211,-0.389273,-2.143616,-0.049645,2.034609,0.432330,0.035000,0.035000,0.00000896
122,4.066667,0.481639,-0.199973,0.450980,0.481632,-0.199968,0.450980,0.010677,-0.100262,-0.392662,-2.125003,-0.042782,2.031961,0.424237,0.035000,0.035000,0.00000881
123,4.100000,0.486141,-0.203068,0.451356,0.486133,-0.203063,0.451355,0.009797,-0.083400,-0.395620,-2.106168,-0.035802,2.028929,0.416652,0.035000,0.035000,0.00000975
124,4.133333,0.490709,-0.205913,0.451792,0.490701,-0.205908,0.451791,0.008930,-0.066647,-0.398158,-2.087130,-0.028746,2.025519,0.409592,0.035000,0.035000,0.00000948
125,4.166667,0.495338,-0.208505,0.452287,0.495330,-0.208500,0.452286,0.008076,-0.050032,-0.400284,-2.067917,-0.021655,2.021742,0.403078,0.035000,0.035000,0.00000943
126,4.200000,0.500022,-0.210840,0.452841,0.500014,-0.210835,0.452840,0.007240,-0.033580,-0.402010,-2.048554,-0.014567,2.017609,0.397126,0.035000,0.035000,0.00000924
127,4.233333,0.504755,-0.212914,0.453453,0.504747,-0.212911,0.453452,0.006429,-0.017312,-0.403350,-2.029066,-0.007518,2.013132,0.391749,0.035000,0.035000,0.00000914
128,4.266667,0.509532,-0.214727,0.454123,0.509523,-0.214724,0.454122,0.005651,-0.001251,-0.404320,-2.009475,-0.000543,2.008325,0.386960,0.035000,0.035000,0.00000907
129,4.300000,0.514346,-0.216275,0.454849,0.514338,-0.216272,0.454847,0.004917,0.014585,-0.404935,-1.989805,0.006328,2.003204,0.382766,0.035000,0.035000,0.00000897
130,4.333333,0.519192,-0.217556,0.455630,0.519183,-0.217554,0.455629,0.004239,0.030180,-0.405215,-1.970078,0.013069,1.997783,0.379174,0.035000,0.035000,0.00000896
131,4.366667,0.524063,-0.218570,0.456467,0.524055,-0.218568,0.456465,0.003630,0.045516,-0.405176,-1.950316,0.019655,1.992080,0.376189,0.035000,0.035000,0.00000896
132,4.400000,0.528954,-0.219314,0.457357,0.528946,-0.219313,0.457355,0.003104,0.060583,-0.404838,-1.930539,0.026066,1.986110,0.373810,0.035000,0.035000,0.00000878
133,4.433333,0.533859,-0.219788,0.458299,0.533851,-0.219787,0.458297,0.002676,0.075367,-0.404220,-1.910768,0.032283,1.979891,0.372036,0.035000,0.035000,0.00000870
134,4.466667,0.538771,-0.219992,0.459293,0.538763,-0.219991,0.459291,0.002359,0.089860,-0.403339,-1.891022,0.038293,1.973441,0.370864,0.035000,0.035000,0.00000885
135,4.500000,0.543685,-0.219924,0.460337,0.543677,-0.219924,0.460335,0.002169,0.104052,-0.402216,-1.871320,0.044083,1.966775,0.370288,0.035000,0.035000,0.00000887
136,4.533333,0.548594,-0.219585,0.461430,0.548586,-0.219586,0.461428,0.002118,0.117937,-0.400867,-1.851681,0.049644,1.959912,0.370300,0.035000,0.035000,0.00000884
137,4.566667,0.553493,-0.218976,0.462570,0.553484,-0.218977,0.462568,0.002220,0.131510,-0.399311,-1.832122,0.054971,1.952868,0.370891,0.035000,0.035000,0.00000896
138,4.600000,0.558375,-0.218097,0.463756,0.558366,-0.218098,0.463754,0.002488,0.144766,-0.397563,-1.812659,0.060058,1.945659,0.372050,0.035000,0.035000,0.00000908
139,4.633333,0.563235,-0.216949,0.464988,0.563226,-0.216951,0.464985,0.002933,0.157703,-0.395640,-1.793309,0.064903,1.938301,0.373765,0.035000,0.035000,0.00000910
140,4.666667,0.568065,-0.215534,0.466262,0.568057,-0.215537,0.466260,0.003566,0.170318,-0.393556,-1.774088,0.069506,1.930811,0.376023,0.035000,0.035000,0.00000906
141,4.700000,0.572862,-0.213854,0.467578,0.572853,-0.213857,0.467575,0.004396,0.182610,-0.391326,-1.755010,0.073866,1.923202,0.378808,0.035000,0.035000,0.00000922
142,4.733333,0.577617,-0.211910,0.468933,0.577609,-0.211913,0.468931,0.005433,0.194580,-0.388963,-1.736089,0.077987,1.915490,0.382108,0.035000,0.035000,0.00000938
143,4.766667,0.582327,-0.209705,0.470327,0.582318,-0.209709,0.470325,0.006683,0.206226,-0.386479,-1.717339,0.081871,1.907689,0.385906,0.035000,0.035000,0.00000959
144,4.800000,0.586984,-0.207241,0.471758,0.586976,-0.207246,0.471756,0.008154,0.217549,-0.383885,-1.698774,0.085523,1.899812,0.390186,0.035000,0.035000,0.00000960
145,4.833333,0.591583,-0.204522,0.473223,0.591575,-0.204527,0.473221,0.009852,0.228552,-0.381192,-1.680406,0.088946,1.891873,0.394933,0.035000,0.035000,0.00000990
146,4.866667,0.596119,-0.201552,0.474722,0.596112,-0.201557,0.474719,0.011780,0.239238,-0.378409,-1.662243,0.092147,1.883883,0.400131,0.035000,0.035000,0.00000910
147,4.900000,0.600586,-0.198333,0.476251,0.600578,-0.198338,0.476249,0.013944,0.249604,-0.375546,-1.644304,0.095131,1.875856,0.405763,0.035000,0.035000,0.00000925
148,4.933333,0.604978,-0.194869,0.477810,0.604971,-0.194875,0.477808,0.016345,0.259655,-0.372611,-1.626598,0.097904,1.867804,0.411812,0.035000,0.035000,0.00000934
149,4.966667,0.609289,-0.191166,0.479396,0.609283,-0.191172,0.479394,0.018987,0.269394,-0.369611,-1.609134,0.100473,1.859737,0.418264,0.035000,0.035000,0.00000960
150,5.000000,0.613516,-0.187227,0.481008,0.613509,-0.187233,0.481005,0.021871,0.278822,-0.366553,-1.591924,0.102844,1.851667,0.425101,0.035000,0.035000,0.00000961
151,5.033333,0.617652,-0.183057,0.482643,0.617646,-0.183064,0.482640,0.024997,0.287942,-0.363444,-1.574978,0.105023,1.843604,0.432308,0.035000,0.035000,0.00000984
152,5.066667,0.621692,-0.178662,0.484299,0.621687,-0.178668,0.484297,0.028366,0.296759,-0.360288,-1.558303,0.107018,1.835558,0.439870,0.035000,0.035000,0.00000878
153,5.100000,0.625632,-0.174047,0.485975,0.625627,-0.174054,0.485972,0.031977,0.305271,-0.357093,-1.541915,0.108834,1.827540,0.447770,0.035000,0.035000,0.00000893
154,5.133333,0.629466,-0.169217,0.487668,0.629461,-0.169224,0.487665,0.035829,0.313484,-0.353862,-1.525820,0.110478,1.819560,0.455994,0.035000,0.035000,0.00000911
155,5.166667,0.633190,-0.164179,0.489376,0.633185,-0.164186,0.489373,0.039921,0.321399,-0.350601,-1.510029,0.111956,1.811627,0.464526,0.035000,0.035000,0.00000940
156,5.200000,0.636800,-0.158939,0.491097,0.636795,-0.158946,0.491094,0.044250,0.329018,-0.347313,-1.494550,0.113274,1.803750,0.473353,0.035000,0.035000,0.00000938
157,5.233333,0.640289,-0.153502,0.492829,0.640284,-0.153510,0.492827,0.048814,0.336344,-0.344001,-1.479395,0.114439,1.795939,0.482459,0.035000,0.035000,0.00000972
158,5.266667,0.643656,-0.147877,0.494570,0.643651,-0.147885,0.494567,0.053610,0.343378,-0.340670,-1.464571,0.115456,1.788203,0.491831,0.035000,0.035000,0.00000984
159,5.300000,0.646894,-0.142069,0.496318,0.646890,-0.142077,0.496315,0.058635,0.350123,-0.337323,-1.450088,0.116331,1.780549,0.501456,0.035000,0.035000,0.00000896
160,5.333333,0.650001,-0.136087,0.498070,0.649998,-0.136095,0.498068,0.063885,0.356578,-0.333962,-1.435959,0.117068,1.772989,0.511317,0.035000,0.035000,0.00000897
161,5.366667,0.652973,-0.129937,0.499824,0.652969,-0.129945,0.499822,0.069355,0.362745,-0.330591,-1.422193,0.117673,1.765531,0.521404,0.035000,0.035000,0.00000937
162,5.400000,0.655805,-0.123626,0.501579,0.655802,-0.123635,0.501577,0.075042,0.368624,-0.327212,-1.408799,0.118150,1.758183,0.531703,0.035000,0.035000,0.00000930
163,5.433333,0.658495,-0.117164,0.503332,0.658491,-0.117172,0.503330,0.080941,0.374216,-0.323827,-1.395789,0.118505,1.750954,0.542201,0.035000,0.035000,0.00000941
164,5.466667,0.661038,-0.110557,0.505081,0.661035,-0.110566,0.505079,0.087047,0.379520,-0.320439,-1.383174,0.118742,1.743854,0.552886,0.035000,0.035000,0.00000949
165,5.500000,0.663433,-0.103814,0.506823,0.663430,-0.103822,0.506821,0.093355,0.384535,-0.317050,-1.370966,0.118863,1.736890,0.563744,0.035000,0.035000,0.00000945
166,5.533333,0.665675,-0.096943,0.508558,0.665672,-0.096952,0.508555,0.099860,0.389261,-0.313661,-1.359175,0.118874,1.730073,0.574766,0.035000,0.035000,0.00000965
167,5.566667,0.667763,-0.089952,0.510281,0.667760,-0.089961,0.510279,0.106556,0.393695,-0.310275,-1.347816,0.118778,1.723411,0.585937,0.035000,0.035000,0.00000985
168,5.600000,0.669693,-0.082851,0.511992,0.669691,-0.082860,0.511990,0.113437,0.397836,-0.306892,-1.336901,0.118578,1.716914,0.597247,0.035000,0.035000,0.00000977
169,5.633333,0.671463,-0.075647,0.513688,0.671461,-0.075657,0.513686,0.120499,0.401680,-0.303516,-1.326443,0.118277,1.710590,0.608685,0.035000,0.035000,0.00001006
170,5.666667,0.673072,-0.068351,0.515367,0.673070,-0.068360,0.515366,0.127734,0.405226,-0.300145,-1.316455,0.117878,1.704449,0.620240,0.035000,0.035000,0.00000902
171,5.700000,0.674516,-0.060970,0.517028,0.674515,-0.060979,0.517026,0.135136,0.408468,-0.296784,-1.306954,0.117384,1.698501,0.631899,0.035000,0.035000,0.00000908
172,5.733333,0.675795,-0.053514,0.518667,0.675794,-0.053523,0.518665,0.142698,0.411402,-0.293432,-1.297954,0.116796,1.692755,0.643652,0.035000,0.035000,0.00000910
173,5.766667,0.676907,-0.045992,0.520283,0.676905,-0.046001,0.520282,0.150414,0.414025,-0.290091,-1.289471,0.116118,1.687221,0.655488,0.035000,0.035000,0.00000907
174,5.800000,0.677849,-0.038414,0.521875,0.677848,-0.038423,0.521873,0.158278,0.416330,-0.286761,-1.281519,0.115351,1.681909,0.667397,0.035000,0.035000,0.00000920
175,5.833333,0.678622,-0.030788,0.523439,0.678622,-0.030797,0.523437,0.166281,0.418313,-0.283444,-1.274116,0.114497,1.676827,0.679369,0.035000,0.035000,0.00000915
176,5.866667,0.679224,-0.023124,0.524975,0.679224,-0.023133,0.524973,0.174417,0.419967,-0.280141,-1.267278,0.113557,1.671986,0.691394,0.035000,0.035000,0.00000926
177,5.900000,0.679655,-0.015432,0.526479,0.679655,-0.015441,0.526478,0.182678,0.421285,-0.276851,-1.261021,0.112534,1.667395,0.703462,0.035000,0.035000,0.00000922
178,5.933333,0.679914,-0.007721,0.527952,0.679914,-0.007730,0.527950,0.191057,0.422262,-0.273576,-1.255363,0.111428,1.663064,0.715562,0.035000,0.035000,0.00000929
179,5.966667,0.680000,-0.000000,0.529389,0.680000,-0.000009,0.529388,0.199545,0.422891,-0.270315,-1.250319,0.110242,1.659001,0.727687,0.035000,0.035000,0.00000926
