Full-Stack-Entity/Robotics-Introduction-Project/outputs/sapien/logs/figure_eight_trajectory.csv
index,time_s,target_x,target_y,target_z,ee_x,ee_y,ee_z,panda_joint1,panda_joint2,panda_joint3,panda_joint4,panda_joint5,panda_joint6,panda_joint7,panda_finger_joint1,panda_finger_joint2,position_error_m
0,0.000000,0.560000,0.000000,0.610000,0.559996,-0.000000,0.609991,0.000000,0.008854,-0.000000,-1.597661,0.000000,1.606518,0.785398,0.035000,0.035000,0.00000925
1,0.033333,0.565615,0.008417,0.609957,0.565610,0.008409,0.609957,0.007648,0.027848,0.007360,-1.574420,-0.000205,1.602267,0.800410,0.035000,0.035000,0.00000961
2,0.066667,0.571223,0.016793,0.609828,0.571218,0.016786,0.609828,0.015374,0.047388,0.014477,-1.550448,-0.000686,1.597830,0.815251,0.035000,0.035000,0.00000954
3,0.100000,0.576818,0.025087,0.609612,0.576812,0.025079,0.609612,0.023143,0.067457,0.021306,-1.525722,-0.001436,1.593164,0.829830,0.035000,0.035000,0.00000936
4,0.133333,0.582391,0.033256,0.609311,0.582386,0.033249,0.609312,0.030926,0.088032,0.027810,-1.500252,-0.002445,1.588250,0.844069,0.035000,0.035000,0.00000922
5,0.166667,0.587937,0.041262,0.608925,0.587932,0.041255,0.608925,0.038692,0.109082,0.033958,-1.474053,-0.003696,1.583072,0.857892,0.035000,0.035000,0.00000920
6,0.200000,0.593449,0.049065,0.608453,0.593444,0.049057,0.608454,0.046409,0.130572,0.039722,-1.447149,-0.005171,1.577620,0.871227,0.035000,0.035000,0.00000898
7,0.233333,0.598919,0.056626,0.607898,0.598914,0.056618,0.607898,0.054041,0.152461,0.045079,-1.419576,-0.006844,1.571884,0.884003,0.035000,0.035000,0.00000989
8,0.266667,0.604342,0.063908,0.607258,0.604336,0.063900,0.607259,0.061551,0.174708,0.050011,-1.391366,-0.008689,1.565860,0.896157,0.035000,0.035000,0.00000955
9,0.300000,0.609710,0.070875,0.606536,0.609704,0.070867,0.606537,0.068900,0.197262,0.054505,-1.362570,-0.010678,1.559547,0.907628,0.035000,0.035000,0.00000930
10,0.333333,0.615016,0.077492,0.605732,0.615011,0.077486,0.605733,0.076046,0.220072,0.058552,-1.333241,-0.012777,1.552950,0.918359,0.035000,0.035000,0.00000886
11,0.366667,0.620255,0.083729,0.604846,0.620249,0.083721,0.604848,0.082944,0.243081,0.062150,-1.303445,-0.014955,1.546078,0.928300,0.035000,0.035000,0.00000960
12,0.400000,0.625420,0.089552,0.603881,0.625414,0.089545,0.603883,0.089550,0.266236,0.065302,-1.273243,-0.017179,1.538943,0.937409,0.035000,0.035000,0.00000910
13,0.433333,0.630504,0.094935,0.602838,0.630497,0.094928,0.602839,0.095818,0.289473,0.068014,-1.242718,-0.019416,1.531567,0.945647,0.035000,0.035000,0.00000976
14,0.466667,0.635501,0.099849,0.601716,0.635495,0.099843,0.601718,0.101703,0.312737,0.070297,-1.211945,-0.021635,1.523970,0.952985,0.035000,0.035000,0.00000909
15,0.500000,0.640405,0.104272,0.600519,0.640398,0.104266,0.600521,0.107156,0.335958,0.072166,-1.181021,-0.023808,1.516184,0.959398,0.035000,0.035000,0.00000951
16,0.533333,0.645210,0.108181,0.599247,0.645203,0.108176,0.599249,0.112133,0.359078,0.073639,-1.150036,-0.025908,1.508242,0.964869,0.035000,0.035000,0.00000910
17,0.566667,0.649910,0.111558,0.597903,0.649903,0.111552,0.597905,0.116588,0.382022,0.074739,-1.119103,-0.027910,1.500186,0.969386,0.035000,0.035000,0.00000955
18,0.600000,0.654499,0.114384,0.596486,0.654492,0.114380,0.596489,0.120481,0.404729,0.075489,-1.088326,-0.029794,1.492058,0.972946,0.035000,0.035000,0.00000876
19,0.633333,0.658972,0.116647,0.595001,0.658964,0.116643,0.595004,0.123771,0.427118,0.075914,-1.057839,-0.031542,1.483914,0.975549,0.035000,0.035000,0.00000929
20,0.666667,0.663323,0.118336,0.593447,0.663315,0.118332,0.593450,0.126421,0.449118,0.076043,-1.027769,-0.033139,1.475808,0.977202,0.035000,0.035000,0.00000970
21,0.700000,0.667547,0.119441,0.591828,0.667539,0.119439,0.591831,0.128399,0.470653,0.075901,-0.998256,-0.034576,1.467805,0.977917,0.035000,0.035000,0.00000918
22,0.733333,0.671638,0.119958,0.590145,0.671629,0.119957,0.590149,0.129675,0.491627,0.075518,-0.969470,-0.035843,1.459981,0.977709,0.035000,0.035000,0.00000963
23,0.766667,0.675592,0.119885,0.588400,0.675583,0.119885,0.588404,0.130223,0.511957,0.074920,-0.941572,-0.036935,1.452410,0.976601,0.035000,0.035000,0.00000936
24,0.800000,0.679403,0.119220,0.586595,0.679395,0.119222,0.586599,0.130023,0.531539,0.074136,-0.914759,-0.037849,1.445185,0.974614,0.035000,0.035000,0.00000932
25,0.833333,0.683067,0.117968,0.584733,0.683059,0.117971,0.584737,0.129058,0.550262,0.073191,-0.889239,-0.038585,1.438404,0.971777,0.035000,0.035000,0.00000937
26,0.866667,0.686580,0.116135,0.582816,0.686572,0.116139,0.582820,0.127316,0.568008,0.072109,-0.865241,-0.039143,1.432175,0.968120,0.035000,0.035000,0.00000963
27,0.900000,0.689936,0.113730,0.580846,0.689930,0.113735,0.580850,0.124792,0.584653,0.070914,-0.843007,-0.039526,1.426613,0.963673,0.035000,0.035000,0.00000916
28,0.933333,0.693133,0.110765,0.578826,0.693126,0.110771,0.578830,0.121483,0.600053,0.069627,-0.822808,-0.039736,1.421847,0.958475,0.035000,0.035000,0.00000959
29,0.966667,0.696165,0.107253,0.576758,0.696160,0.107260,0.576762,0.117394,0.614077,0.068267,-0.804904,-0.039779,1.418002,0.952558,0.035000,0.035000,0.00000903
30,1.000000,0.699030,0.103214,0.574645,0.699025,0.103221,0.574649,0.112536,0.626582,0.066849,-0.789564,-0.039659,1.415206,0.945963,0.035000,0.035000,0.00000971
31,1.033333,0.701723,0.098666,0.572489,0.701719,0.098673,0.572492,0.106926,0.637454,0.065385,-0.777019,-0.039382,1.413570,0.938725,0.035000,0.035000,0.00000908
32,1.066667,0.704242,0.093632,0.570293,0.704238,0.093640,0.570297,0.100589,0.646595,0.063886,-0.767458,-0.038956,1.413189,0.930885,0.035000,0.035000,0.00000986
33,1.100000,0.706583,0.088137,0.568059,0.706580,0.088145,0.568063,0.093558,0.653955,0.062357,-0.760988,-0.038388,1.414118,0.922478,0.035000,0.035000,0.00000935
34,1.133333,0.708744,0.082207,0.565792,0.708741,0.082216,0.565795,0.085876,0.659530,0.060799,-0.757627,-0.037688,1.416370,0.913545,0.035000,0.035000,0.00000963
35,1.166667,0.710721,0.075873,0.563492,0.710719,0.075881,0.563495,0.077591,0.663379,0.059210,-0.757285,-0.036866,1.419914,0.904119,0.035000,0.035000,0.00000923
36,1.200000,0.712512,0.069164,0.561163,0.712510,0.069173,0.561166,0.068762,0.665607,0.057587,-0.759775,-0.035933,1.424669,0.894240,0.035000,0.035000,0.00000950
37,1.233333,0.714116,0.062115,0.558809,0.714114,0.062125,0.558812,0.059450,0.666363,0.055924,-0.764837,-0.034900,1.430524,0.883945,0.035000,0.035000,0.00001005
38,1.266667,0.715530,0.054760,0.556431,0.715528,0.054769,0.556434,0.049716,0.665819,0.054216,-0.772165,-0.033780,1.437345,0.873270,0.035000,0.035000,0.00000932
39,1.300000,0.716752,0.047135,0.554033,0.716751,0.047144,0.554036,0.039629,0.664155,0.052457,-0.781435,-0.032583,1.444988,0.862258,0.035000,0.035000,0.00000961
40,1.333333,0.717781,0.039278,0.551617,0.717780,0.039288,0.551620,0.029251,0.661545,0.050644,-0.792336,-0.031320,1.453316,0.850950,0.035000,0.035000,0.00000986
41,1.366667,0.718616,0.031228,0.549188,0.718615,0.031237,0.549190,0.018647,0.658145,0.048774,-0.804585,-0.030002,1.462203,0.839390,0.035000,0.035000,0.00000995
42,1.400000,0.719255,0.023023,0.546747,0.719255,0.023032,0.546749,0.007875,0.654091,0.046848,-0.817938,-0.028638,1.471540,0.827624,0.035000,0.035000,0.00000918
43,1.433333,0.719698,0.014706,0.544297,0.719698,0.014715,0.544300,-0.003001,0.649495,0.044867,-0.832190,-0.027238,1.481233,0.815701,0.035000,0.035000,0.00000934
44,1.466667,0.719945,0.006315,0.541843,0.719945,0.006324,0.541845,-0.013927,0.644442,0.042836,-0.847182,-0.025811,1.491210,0.803670,0.035000,0.035000,0.00000927
45,1.500000,0.719994,-0.002106,0.539386,0.719994,-0.002097,0.539388,-0.024849,0.638998,0.040759,-0.862792,-0.024363,1.501414,0.791584,0.035000,0.035000,0.00000936
46,1.533333,0.719846,-0.010517,0.536930,0.719846,-0.010508,0.536932,-0.035712,0.633208,0.038643,-0.878935,-0.022902,1.511802,0.779492,0.035000,0.035000,0.00000952
47,1.566667,0.719501,-0.018876,0.534477,0.719502,-0.018867,0.534480,-0.046467,0.627098,0.036495,-0.895552,-0.021437,1.522345,0.767449,0.035000,0.035000,0.00000924
48,1.600000,0.718960,-0.027142,0.532032,0.718961,-0.027134,0.532034,-0.057065,0.620681,0.034325,-0.912612,-0.019975,1.533022,0.755505,0.035000,0.035000,0.00000912
49,1.633333,0.718223,-0.035275,0.529596,0.718224,-0.035266,0.529599,-0.067458,0.613957,0.032141,-0.930104,-0.018521,1.543823,0.743715,0.035000,0.035000,0.00000911
50,1.666667,0.717291,-0.043233,0.527173,0.717292,-0.043224,0.527176,-0.077600,0.606919,0.029953,-0.948030,-0.017084,1.554741,0.732130,0.035000,0.035000,0.00000996
51,1.700000,0.716165,-0.050979,0.524766,0.716166,-0.050970,0.524769,-0.087450,0.599546,0.027771,-0.966411,-0.015669,1.565778,0.720799,0.035000,0.035000,0.00000975
52,1.733333,0.714847,-0.058474,0.522378,0.714849,-0.058465,0.522381,-0.096966,0.591818,0.025607,-0.985270,-0.014284,1.576936,0.709773,0.035000,0.035000,0.00000965
53,1.766667,0.713338,-0.065680,0.520011,0.713340,-0.065672,0.520014,-0.106107,0.583709,0.023470,-1.004638,-0.012936,1.588219,0.699101,0.035000,0.035000,0.00000927
54,1.800000,0.711640,-0.072563,0.517669,0.711642,-0.072554,0.517672,-0.114837,0.575191,0.021372,-1.024545,-0.011631,1.599630,0.688831,0.035000,0.035000,0.00000986
55,1.833333,0.709755,-0.079089,0.515354,0.709758,-0.079080,0.515358,-0.123121,0.566234,0.019325,-1.045031,-0.010375,1.611178,0.679005,0.035000,0.035000,0.00000952
56,1.866667,0.707686,-0.085224,0.513070,0.707689,-0.085216,0.513073,-0.130927,0.556811,0.017339,-1.066123,-0.009176,1.622864,0.669669,0.035000,0.035000,0.00000897
57,1.900000,0.705435,-0.090940,0.510819,0.705438,-0.090932,0.510823,-0.138223,0.546897,0.015427,-1.087845,-0.008039,1.634687,0.660866,0.035000,0.035000,0.00000957
58,1.933333,0.703005,-0.096208,0.508604,0.703008,-0.096200,0.508608,-0.144984,0.536466,0.013601,-1.110225,-0.006971,1.646649,0.652633,0.035000,0.035000,0.00000923
59,1.966667,0.700398,-0.101002,0.506428,0.700402,-0.100994,0.506432,-0.151184,0.525503,0.011873,-1.133271,-0.005979,1.658742,0.645011,0.035000,0.035000,0.00000969
60,2.000000,0.697619,-0.105299,0.504293,0.697624,-0.105291,0.504297,-0.156802,0.513990,0.010256,-1.156993,-0.005068,1.670960,0.638034,0.035000,0.035000,0.00001013
61,2.033333,0.694670,-0.109076,0.502202,0.694675,-0.109069,0.502206,-0.161822,0.501915,0.008763,-1.181396,-0.004243,1.683293,0.631734,0.035000,0.035000,0.00000951
62,2.066667,0.691555,-0.112316,0.500158,0.691561,-0.112310,0.500162,-0.166227,0.489275,0.007408,-1.206460,-0.003509,1.695722,0.626148,0.035000,0.035000,0.00001009
63,2.100000,0.688278,-0.115003,0.498162,0.688284,-0.114998,0.498167,-0.170006,0.476064,0.006205,-1.232178,-0.002871,1.708234,0.621301,0.035000,0.035000,0.00000958
64,2.133333,0.684843,-0.117124,0.496219,0.684850,-0.117119,0.496223,-0.173150,0.462293,0.005169,-1.258513,-0.002332,1.720801,0.617223,0.035000,0.035000,0.00001010
65,2.166667,0.681254,-0.118667,0.494329,0.681262,-0.118664,0.494333,-0.175655,0.447964,0.004315,-1.285443,-0.001894,1.733403,0.613939,0.035000,0.035000,0.00000985
66,2.200000,0.677515,-0.119626,0.492495,0.677524,-0.119624,0.492499,-0.177520,0.433092,0.003658,-1.312922,-0.001559,1.746011,0.611471,0.035000,0.035000,0.00000966
67,2.233333,0.673632,-0.119995,0.490720,0.673641,-0.119994,0.490724,-0.178746,0.417696,0.003216,-1.340900,-0.001328,1.758594,0.609840,0.035000,0.035000,0.00000985
68,2.266667,0.669609,-0.119774,0.489006,0.669619,-0.119774,0.489010,-0.179340,0.401798,0.003005,-1.369322,-0.001199,1.771119,0.609063,0.035000,0.035000,0.00000999
69,2.300000,0.665451,-0.118962,0.487354,0.665460,-0.118964,0.487358,-0.179309,0.385421,0.003042,-1.398137,-0.001170,1.783556,0.609155,0.035000,0.035000,0.00000931
70,2.333333,0.661163,-0.117564,0.485768,0.661172,-0.117567,0.485771,-0.178666,0.368601,0.003345,-1.427265,-0.001236,1.795863,0.610128,0.035000,0.035000,0.00000978
71,2.366667,0.656751,-0.115587,0.484248,0.656759,-0.115591,0.484251,-0.177426,0.351364,0.003930,-1.456649,-0.001392,1.808010,0.611988,0.035000,0.035000,0.00000930
72,2.400000,0.652219,-0.113041,0.482797,0.652227,-0.113045,0.482799,-0.175608,0.333753,0.004815,-1.486206,-0.001628,1.819955,0.614741,0.035000,0.035000,0.00000987
73,2.433333,0.647574,-0.109937,0.481416,0.647581,-0.109942,0.481418,-0.173230,0.315800,0.006017,-1.515871,-0.001934,1.831665,0.618387,0.035000,0.035000,0.00000960
74,2.466667,0.642820,-0.106292,0.480108,0.642828,-0.106298,0.480110,-0.170318,0.297553,0.007552,-1.545557,-0.002299,1.843101,0.622919,0.035000,0.035000,0.00001005
75,2.500000,0.637965,-0.102124,0.478873,0.637972,-0.102130,0.478875,-0.166895,0.279048,0.009436,-1.575195,-0.002707,1.854230,0.628331,0.035000,0.035000,0.00000959
76,2.533333,0.633014,-0.097452,0.477713,0.633020,-0.097458,0.477715,-0.162991,0.260333,0.011683,-1.604701,-0.003142,1.865016,0.634608,0.035000,0.035000,0.00000920
77,2.566667,0.627972,-0.092300,0.476631,0.627979,-0.092307,0.476632,-0.158633,0.241458,0.014304,-1.633993,-0.003585,1.875425,0.641729,0.035000,0.035000,0.00000984
78,2.600000,0.622847,-0.086694,0.475626,0.622853,-0.086700,0.475627,-0.153853,0.222463,0.017311,-1.663000,-0.004016,1.885429,0.649673,0.035000,0.035000,0.00000912
79,2.633333,0.617645,-0.080660,0.474701,0.617651,-0.080667,0.474702,-0.148681,0.203402,0.020711,-1.691641,-0.004413,1.894997,0.658407,0.035000,0.035000,0.00000973
80,2.666667,0.612371,-0.074229,0.473856,0.612377,-0.074237,0.473857,-0.143151,0.184318,0.024510,-1.719843,-0.004753,1.904104,0.667898,0.035000,0.035000,0.00000993
81,2.700000,0.607033,-0.067433,0.473093,0.607039,-0.067440,0.473094,-0.137293,0.165258,0.028710,-1.747541,-0.005012,1.912728,0.678105,0.035000,0.035000,0.00000940
82,2.733333,0.601637,-0.060304,0.472412,0.601643,-0.060311,0.472413,-0.131143,0.146272,0.033308,-1.774660,-0.005167,1.920847,0.688980,0.035000,0.035000,0.00000976
83,2.766667,0.596190,-0.052878,0.471814,0.596196,-0.052886,0.471815,-0.124731,0.127402,0.038299,-1.801140,-0.005194,1.928446,0.700473,0.035000,0.035000,0.00000985
84,2.800000,0.590698,-0.045191,0.471300,0.590703,-0.045199,0.471301,-0.118092,0.108691,0.043673,-1.826927,-0.005070,1.935511,0.712531,0.035000,0.035000,0.00000910
85,2.833333,0.585168,-0.037282,0.470871,0.585174,-0.037290,0.470872,-0.111257,0.090182,0.049417,-1.851963,-0.004774,1.942032,0.725090,0.035000,0.035000,0.00000923
86,2.866667,0.579607,-0.029190,0.470528,0.579613,-0.029197,0.470528,-0.104259,0.071911,0.055511,-1.876205,-0.004288,1.948002,0.738086,0.035000,0.035000,0.00000953
87,2.900000,0.574023,-0.020953,0.470269,0.574028,-0.020961,0.470270,-0.097129,0.053912,0.061932,-1.899611,-0.003595,1.953418,0.751454,0.035000,0.035000,0.00000961
88,2.933333,0.568420,-0.012613,0.470097,0.568426,-0.012621,0.470097,-0.089898,0.036217,0.068652,-1.922152,-0.002683,1.958282,0.765121,0.035000,0.035000,0.00000975
89,2.966667,0.562808,-0.004211,0.470011,0.562814,-0.004219,0.470011,-0.082599,0.018849,0.075641,-1.943800,-0.001541,1.962595,0.779015,0.035000,0.035000,0.00000970
90,3.000000,0.557192,0.004211,0.470011,0.557198,0.004203,0.470011,-0.075260,0.001831,0.082860,-1.964538,-0.000164,1.966363,0.793061,0.035000,0.035000,0.00000972
91,3.033333,0.551580,0.012613,0.470097,0.551585,0.012605,0.470097,-0.067915,-0.014822,0.090272,-1.984359,0.001450,1.969596,0.807183,0.035000,0.035000,0.00000973
92,3.066667,0.545977,0.020953,0.470269,0.545983,0.020945,0.470269,-0.060591,-0.031101,0.097831,-2.003258,0.003300,1.972304,0.821302,0.035000,0.035000,0.00000968
93,3.100000,0.540393,0.029190,0.470528,0.540398,0.029182,0.470527,-0.053321,-0.047001,0.105493,-2.021245,0.005380,1.974499,0.835341,0.035000,0.035000,0.00000949
94,3.133333,0.534832,0.037282,0.470871,0.534837,0.037275,0.470871,-0.046134,-0.062524,0.113208,-2.038331,0.007681,1.976195,0.849223,0.035000,0.035000,0.00000947
95,3.166667,0.529302,0.045191,0.471300,0.529308,0.045184,0.471300,-0.039061,-0.077678,0.120925,-2.054540,0.010192,1.977408,0.862870,0.035000,0.035000,0.00000931
96,3.200000,0.523810,0.052878,0.471814,0.523816,0.052871,0.471814,-0.032130,-0.092475,0.128591,-2.069899,0.012898,1.978153,0.876206,0.035000,0.035000,0.00000908
97,3.233333,0.518363,0.060304,0.472412,0.518369,0.060296,0.472411,-0.025372,-0.106933,0.136153,-2.084442,0.015780,1.978446,0.889154,0.035000,0.035000,0.00000993
98,3.266667,0.512967,0.067433,0.473093,0.512973,0.067425,0.473092,-0.018814,-0.121077,0.143557,-2.098211,0.018822,1.978303,0.901644,0.035000,0.035000,0.00000953
99,3.300000,0.507629,0.074229,0.473856,0.507635,0.074222,0.473855,-0.012483,-0.134935,0.150747,-2.111252,0.022001,1.977741,0.913603,0.035000,0.035000,0.00000923
100,3.333333,0.502355,0.080660,0.474701,0.502362,0.080653,0.474700,-0.006407,-0.148536,0.157670,-2.123610,0.025296,1.976774,0.924962,0.035000,0.035000,0.00000998
101,3.366667,0.497153,0.086694,0.475626,0.497159,0.086687,0.475625,-0.000609,-0.161916,0.164273,-2.135340,0.028683,1.975418,0.935657,0.035000,0.035000,0.00000951
102,3.400000,0.492028,0.092300,0.476631,0.492034,0.092294,0.476629,0.004888,-0.175110,0.170501,-2.146493,0.032139,1.973685,0.945624,0.035000,0.035000,0.00000921
103,3.433333,0.486986,0.097452,0.477713,0.486993,0.097445,0.477712,0.010060,-0.188154,0.176305,-2.157121,0.035638,1.971589,0.954805,0.035000,0.035000,0.00000946
104,3.466667,0.482035,0.102124,0.478873,0.482042,0.102118,0.478871,0.014890,-0.201086,0.181635,-2.167279,0.039154,1.969140,0.963147,0.035000,0.035000,0.00000905
105,3.500000,0.477180,0.106292,0.480108,0.477187,0.106286,0.480106,0.019358,-0.213939,0.186443,-2.177015,0.042661,1.966350,0.970597,0.035000,0.035000,0.00000960
106,3.533333,0.472426,0.109937,0.481416,0.472434,0.109931,0.481414,0.023450,-0.226747,0.190686,-2.186377,0.046130,1.963227,0.977113,0.035000,0.035000,0.00001009
107,3.566667,0.467781,0.113041,0.482797,0.467789,0.113036,0.482794,0.027151,-0.239541,0.194321,-2.195409,0.049533,1.959780,0.982657,0.035000,0.035000,0.00000932
108,3.600000,0.463249,0.115587,0.484248,0.463257,0.115583,0.484245,0.030449,-0.252340,0.197310,-2.204146,0.052839,1.956016,0.987191,0.035000,0.035000,0.00000968
109,3.633333,0.458837,0.117564,0.485768,0.458845,0.117561,0.485765,0.033332,-0.265170,0.199618,-2.212624,0.056015,1.951941,0.990691,0.035000,0.035000,0.00000925
110,3.666667,0.454549,0.118962,0.487354,0.454557,0.118959,0.487351,0.035791,-0.278037,0.201214,-2.220864,0.059027,1.947563,0.993132,0.035000,0.035000,0.00000973
111,3.700000,0.450391,0.119774,0.489006,0.450399,0.119772,0.489003,0.037818,-0.290951,0.202071,-2.228886,0.061842,1.942887,0.994501,0.035000,0.035000,0.00000919
112,3.733333,0.446368,0.119995,0.490720,0.446377,0.119995,0.490716,0.039405,-0.303906,0.202165,-2.236699,0.064421,1.937923,0.994788,0.035000,0.035000,0.00000993
113,3.766667,0.442485,0.119626,0.492495,0.442493,0.119627,0.492491,0.040546,-0.316895,0.201481,-2.244306,0.066729,1.932674,0.993988,0.035000,0.035000,0.00000957
114,3.800000,0.438746,0.118667,0.494329,0.438755,0.118669,0.494325,0.041234,-0.329897,0.200004,-2.251699,0.068728,1.927151,0.992105,0.035000,0.035000,0.00000969
115,3.833333,0.435157,0.117124,0.496219,0.435166,0.117127,0.496214,0.041465,-0.342884,0.197728,-2.258865,0.070380,1.921364,0.989148,0.035000,0.035000,0.00000971
116,3.866667,0.431722,0.115003,0.498162,0.431730,0.115008,0.498158,0.041234,-0.355819,0.194650,-2.265782,0.071649,1.915326,0.985132,0.035000,0.035000,0.00001016
117,3.900000,0.428445,0.112316,0.500158,0.428452,0.112322,0.500154,0.040538,-0.368659,0.190773,-2.272419,0.072500,1.909049,0.980075,0.035000,0.035000,0.00000951
118,3.933333,0.425330,0.109076,0.502202,0.425337,0.109083,0.502198,0.039375,-0.381347,0.186107,-2.278740,0.072901,1.902552,0.974004,0.035000,0.035000,0.00000995
119,3.966667,0.422381,0.105299,0.504293,0.422387,0.105306,0.504289,0.037743,-0.393828,0.180666,-2.284702,0.072824,1.895851,0.966948,0.035000,0.035000,0.00000975
120,4.000000,0.419602,0.101002,0.506428,0.419607,0.101010,0.506424,0.035645,-0.406028,0.174471,-2.290256,0.072246,1.888972,0.958945,0.035000,0.035000,0.00001011
121,4.033333,0.416995,0.096208,0.508604,0.417000,0.096216,0.508601,0.033083,-0.417881,0.167545,-2.295351,0.071150,1.881937,0.950030,0.035000,0.035000,0.00000960
122,4.066667,0.414565,0.090940,0.510819,0.414569,0.090948,0.510816,0.030067,-0.429307,0.159922,-2.299931,0.069523,1.874772,0.940249,0.035000,0.035000,0.00000908
123,4.100000,0.412314,0.085224,0.513070,0.412317,0.085233,0.513067,0.026606,-0.440224,0.151637,-2.303937,0.067364,1.867510,0.929651,0.035000,0.035000,0.00000961
124,4.133333,0.410245,0.079089,0.515354,0.410248,0.079097,0.515352,0.022715,-0.450554,0.142729,-2.307312,0.064675,1.860179,0.918285,0.035000,0.035000,0.00000912
125,4.166667,0.408360,0.072563,0.517669,0.408363,0.072572,0.517666,0.018414,-0.460211,0.133246,-2.309997,0.061470,1.852814,0.906208,0.035000,0.035000,0.00000952
126,4.200000,0.406662,0.065680,0.520011,0.406665,0.065689,0.520008,0.013728,-0.469117,0.123237,-2.311936,0.057770,1.845446,0.893479,0.035000,0.035000,0.00001003
127,4.233333,0.405153,0.058474,0.522378,0.405155,0.058482,0.522375,0.008685,-0.477195,0.112752,-2.313077,0.053605,1.838110,0.880157,0.035000,0.035000,0.00000936
128,4.266667,0.403835,0.050979,0.524766,0.403837,0.050988,0.524763,0.003321,-0.484372,0.101853,-2.313370,0.049013,1.830838,0.866312,0.035000,0.035000,0.00000955
129,4.300000,0.402709,0.043233,0.527173,0.402711,0.043243,0.527170,-0.002324,-0.490581,0.090596,-2.312773,0.044039,1.823662,0.852010,0.035000,0.035000,0.00000974
130,4.333333,0.401777,0.035275,0.529596,0.401778,0.035284,0.529593,-0.008207,-0.495766,0.079046,-2.311247,0.038737,1.816611,0.837322,0.035000,0.035000,0.00000991
131,4.366667,0.401040,0.027142,0.532032,0.401041,0.027151,0.532029,-0.014281,-0.499879,0.067265,-2.308763,0.033165,1.809709,0.822321,0.035000,0.035000,0.00000905
132,4.400000,0.400499,0.018876,0.534477,0.400499,0.018885,0.534475,-0.020493,-0.502881,0.055321,-2.305300,0.027387,1.802981,0.807086,0.035000,0.035000,0.00000914
133,4.433333,0.400154,0.010517,0.536930,0.400154,0.010526,0.536927,-0.026791,-0.504748,0.043281,-2.300846,0.021469,1.796444,0.791692,0.035000,0.035000,0.00000942
134,4.466667,0.400006,0.002106,0.539386,0.400007,0.002115,0.539383,-0.033122,-0.505464,0.031211,-2.295395,0.015482,1.790111,0.776218,0.035000,0.035000,0.00000920
135,4.500000,0.400055,-0.006315,0.541843,0.400055,-0.006306,0.541840,-0.039431,-0.505030,0.019179,-2.288952,0.009494,1.783991,0.760743,0.035000,0.035000,0.00000942
136,4.533333,0.400302,-0.014706,0.544297,0.400302,-0.014697,0.544295,-0.045668,-0.503455,0.007251,-2.281533,0.003575,1.778088,0.745347,0.035000,0.035000,0.00000937
137,4.566667,0.400745,-0.023023,0.546747,0.400744,-0.023015,0.546744,-0.051780,-0.500763,-0.004508,-2.273160,-0.002209,1.772401,0.730106,0.035000,0.035000,0.00000916
138,4.600000,0.401384,-0.031228,0.549188,0.401384,-0.031219,0.549185,-0.057722,-0.496988,-0.016035,-2.263865,-0.007794,1.766925,0.715100,0.035000,0.035000,0.00000901
139,4.633333,0.402219,-0.039278,0.551617,0.402218,-0.039269,0.551614,-0.063450,-0.492175,-0.027268,-2.253687,-0.013123,1.761651,0.700405,0.035000,0.035000,0.00001013
140,4.666667,0.403248,-0.047135,0.554033,0.403247,-0.047126,0.554030,-0.068925,-0.486375,-0.038153,-2.242671,-0.018142,1.756567,0.686092,0.035000,0.035000,0.00000978
141,4.700000,0.404470,-0.054760,0.556431,0.404469,-0.054751,0.556428,-0.074115,-0.479650,-0.048632,-2.230870,-0.022807,1.751658,0.672235,0.035000,0.035000,0.00000951
142,4.733333,0.405884,-0.062115,0.558809,0.405882,-0.062107,0.558806,-0.078989,-0.472068,-0.058654,-2.218343,-0.027079,1.746908,0.658903,0.035000,0.035000,0.00000922
143,4.766667,0.407488,-0.069164,0.561163,0.407486,-0.069155,0.561160,-0.083524,-0.463701,-0.068170,-2.205153,-0.030925,1.742301,0.646163,0.035000,0.035000,0.00001009
144,4.800000,0.409279,-0.075873,0.563492,0.409277,-0.075864,0.563489,-0.087701,-0.454622,-0.077139,-2.191362,-0.034324,1.737817,0.634075,0.035000,0.035000,0.00000959
145,4.833333,0.411256,-0.082207,0.565792,0.411254,-0.082199,0.565789,-0.091504,-0.444909,-0.085520,-2.177038,-0.037261,1.733439,0.622702,0.035000,0.035000,0.00000917
146,4.866667,0.413417,-0.088137,0.568059,0.413414,-0.088128,0.568056,-0.094922,-0.434641,-0.093274,-2.162254,-0.039727,1.729151,0.612100,0.035000,0.035000,0.00000974
147,4.900000,0.415758,-0.093632,0.570293,0.415755,-0.093624,0.570290,-0.097948,-0.423890,-0.100373,-2.147071,-0.041721,1.724938,0.602319,0.035000,0.035000,0.00000923
148,4.933333,0.418277,-0.098666,0.572489,0.418273,-0.098658,0.572485,-0.100575,-0.412733,-0.106786,-2.131563,-0.043251,1.720786,0.593411,0.035000,0.035000,0.00000963
149,4.966667,0.420970,-0.103214,0.574645,0.420966,-0.103207,0.574641,-0.102802,-0.401238,-0.112492,-2.115788,-0.044327,1.716684,0.585419,0.035000,0.035000,0.00000905
150,5.000000,0.423835,-0.107253,0.576758,0.423830,-0.107246,0.576754,-0.104627,-0.389473,-0.117472,-2.099814,-0.044968,1.712622,0.578386,0.035000,0.035000,0.00000956
151,5.033333,0.426867,-0.110765,0.578826,0.426862,-0.110758,0.578822,-0.106049,-0.377495,-0.121710,-2.083691,-0.045195,1.708594,0.572344,0.035000,0.035000,0.00000912
152,5.066667,0.430064,-0.113730,0.580846,0.430058,-0.113724,0.580842,-0.107069,-0.365363,-0.125197,-2.067477,-0.045032,1.704594,0.567329,0.035000,0.035000,0.00000945
153,5.100000,0.433420,-0.116135,0.582816,0.433414,-0.116130,0.582812,-0.107688,-0.353119,-0.127927,-2.051212,-0.044509,1.700620,0.563365,0.035000,0.035000,0.00000899
154,5.133333,0.436933,-0.117968,0.584733,0.436925,-0.117964,0.584729,-0.107905,-0.340808,-0.129898,-2.034943,-0.043655,1.696672,0.560473,0.035000,0.035000,0.00000965
155,5.166667,0.440597,-0.119220,0.586595,0.440589,-0.119217,0.586591,-0.107724,-0.328458,-0.131113,-2.018694,-0.042502,1.692749,0.558670,0.035000,0.035000,0.00000945
156,5.200000,0.444408,-0.119885,0.588400,0.444400,-0.119883,0.588396,-0.107144,-0.316096,-0.131580,-2.002493,-0.041082,1.688855,0.557965,0.035000,0.035000,0.00000942
157,5.233333,0.448362,-0.119958,0.590145,0.448353,-0.119958,0.590141,-0.106167,-0.303737,-0.131309,-1.986358,-0.039427,1.684992,0.558363,0.035000,0.035000,0.00000936
158,5.266667,0.452453,-0.119441,0.591828,0.452444,-0.119443,0.591824,-0.104794,-0.291390,-0.130316,-1.970296,-0.037569,1.681164,0.559863,0.035000,0.035000,0.00000980
159,5.300000,0.456677,-0.118336,0.593447,0.456668,-0.118338,0.593444,-0.103026,-0.279052,-0.128621,-1.954306,-0.035539,1.677375,0.562457,0.035000,0.035000,0.00000910
160,5.333333,0.461028,-0.116647,0.595001,0.461019,-0.116651,0.594998,-0.100867,-0.266722,-0.126245,-1.938385,-0.033369,1.673630,0.566131,0.035000,0.035000,0.00000977
161,5.366667,0.465501,-0.114384,0.596486,0.465493,-0.114388,0.596484,-0.098319,-0.254379,-0.123216,-1.922511,-0.031086,1.669932,0.570867,0.035000,0.035000,0.00000909
162,5.400000,0.470090,-0.111558,0.597903,0.470082,-0.111562,0.597900,-0.095387,-0.242004,-0.119564,-1.906665,-0.028720,1.666284,0.576639,0.035000,0.035000,0.00000903
163,5.433333,0.474790,-0.108181,0.599247,0.474783,-0.108187,0.599245,-0.092076,-0.229572,-0.115322,-1.890819,-0.026299,1.662688,0.583413,0.035000,0.035000,0.00000938
164,5.466667,0.479595,-0.104272,0.600519,0.479588,-0.104278,0.600517,-0.088393,-0.217046,-0.110526,-1.874931,-0.023848,1.659143,0.591157,0.035000,0.035000,0.00000911
165,5.500000,0.484499,-0.099849,0.601716,0.484492,-0.099856,0.601715,-0.084345,-0.204393,-0.105215,-1.858963,-0.021395,1.655650,0.599826,0.035000,0.035000,0.00000975
166,5.533333,0.489496,-0.094935,0.602838,0.489490,-0.094941,0.602836,-0.079943,-0.191569,-0.099430,-1.842863,-0.018964,1.652203,0.609375,0.035000,0.035000,0.00000923
167,5.566667,0.494580,-0.089552,0.603881,0.494574,-0.089559,0.603880,-0.075197,-0.178534,-0.093215,-1.826585,-0.016581,1.648798,0.619751,0.035000,0.035000,0.00000954
168,5.600000,0.499745,-0.083729,0.604846,0.499739,-0.083736,0.604845,-0.070120,-0.165242,-0.086615,-1.810069,-0.014270,1.645428,0.630901,0.035000,0.035000,0.00000926
169,5.633333,0.504984,-0.077492,0.605732,0.504978,-0.077500,0.605731,-0.064727,-0.151650,-0.079678,-1.793265,-0.012055,1.642083,0.642763,0.035000,0.035000,0.00000953
170,5.666667,0.510290,-0.070875,0.606536,0.510285,-0.070882,0.606535,-0.059031,-0.137713,-0.072450,-1.776110,-0.009960,1.638751,0.655277,0.035000,0.035000,0.00000902
171,5.700000,0.515658,-0.063908,0.607258,0.515652,-0.063915,0.607257,-0.053052,-0.123391,-0.064984,-1.758554,-0.008009,1.635419,0.668372,0.035000,0.035000,0.00000940
172,5.733333,0.521081,-0.056626,0.607898,0.521075,-0.056633,0.607897,-0.046806,-0.108644,-0.057329,-1.740538,-0.006225,1.632070,0.681981,0.035000,0.035000,0.00000948
173,5.766667,0.526551,-0.049065,0.608453,0.526545,-0.049073,0.608453,-0.040312,-0.093436,-0.049537,-1.722010,-0.004628,1.628687,0.696033,0.035000,0.035000,0.00000982
174,5.800000,0.532063,-0.041262,0.608925,0.532058,-0.041270,0.608924,-0.033589,-0.077734,-0.041657,-1.702918,-0.003239,1.625250,0.710455,0.035000,0.035000,0.00000897
175,5.833333,0.537609,-0.033256,0.609311,0.537604,-0.033264,0.609311,-0.026658,-0.061516,-0.033743,-1.683220,-0.002077,1.621738,0.725167,0.035000,0.035000,0.00000912
176,5.866667,0.543182,-0.025087,0.609612,0.543177,-0.025094,0.609612,-0.019541,-0.044760,-0.025845,-1.662875,-0.001158,1.618130,0.740093,0.035000,0.035000,0.00000920
177,5.900000,0.548777,-0.016793,0.609828,0.548772,-0.016801,0.609828,-0.012259,-0.027450,-0.018013,-1.641847,-0.000495,1.614402,0.755155,0.035000,0.035000,0.00000940
178,5.933333,0.554385,-0.008417,0.609957,0.554380,-0.008425,0.609957,-0.004835,-0.009579,-0.010295,-1.620109,-0.000099,1.610530,0.770273,0.035000,0.035000,0.00000958
179,5.966667,0.560000,-0.000000,0.610000,0.559995,-0.000008,0.610000,0.002708,0.008855,-0.002739,-1.597638,0.000024,1.606493,0.785366,0.035000,0.035000,0.00000965
